dist/svgs/core-ui-icons/brand/cib-nintendo-gamecube.svg

<svg xmlns="http://www.w3.org/2000/svg" width="32" height="32" viewBox="0 0 32 32">
  <path d="M9.088 20.172l6.272 3.62v-7.245l-6.277-3.62v7.245zM6.385 21.729l8.975 5.177v5.093l-13.387-7.724v-15.453l4.412 2.547zM16 8.193l-6.271 3.624 6.271 3.62 6.271-3.62-6.271-3.62zM16 5.083l7.547 4.371 4.412-2.547-11.959-6.907-13.369 7.719 4.411 2.541zM25.609 21.729v-5.265l-2.697 1.557v2.151l-6.272 3.625v-7.245l13.387-7.724v15.448l-13.387 7.729v-5.088z"/>
</svg>

<svg xmlns="http://www.w3.org/2000/svg" viewBox="0 0 32 32"><path d="M9.088 20.172l6.272 3.62v-7.245l-6.277-3.62v7.245zm-2.703 1.557l8.975 5.177v5.093L1.973 24.275V8.822l4.412 2.547zM16 8.193l-6.271 3.624L16 15.437l6.271-3.62L16 8.197zm0-3.11l7.547 4.371 4.412-2.547L16 0 2.631 7.719l4.411 2.541zm9.609 16.646v-5.265l-2.697 1.557v2.151l-6.272 3.625v-7.245l13.387-7.724v15.448L16.64 32.005v-5.088z"/></svg>
